lib/flags/lb-lebanon.svg

<svg xmlns="http://www.w3.org/2000/svg" fill="none" aria-hidden="true" viewBox="0 0 42 30"><g id="Country=LB - Lebanon, Size=sm (36x24)" filter="url(#filter0_dd_91_26767)"><g clip-path="url(#clip0_91_26767)"><g id="flag"><mask id="mask0_91_26767" width="36" height="24" x="3" y="2" maskUnits="userSpaceOnUse" style="mask-type:alpha"><rect id="mask" width="36" height="24" x="3" y="2" fill="white"/></mask><g mask="url(#mask0_91_26767)"><g id="contents"><path id="Combined Shape" fill="#F50101" fill-rule="evenodd" d="M39 2H3V8H39V2ZM39 20H3V26H39V20Z" clip-rule="evenodd"/><path id="middle" fill="#F7FCFF" fill-rule="evenodd" d="M3 8H39V20H3V8Z" clip-rule="evenodd"/><g id="mark"><path id="tree" fill="#52AB0B" fill-rule="evenodd" d="M27.204 14.5131C27.2879 15.3805 23.687 14.1533 23.687 14.5005C23.687 14.8478 27.5445 15.4576 27.538 16.235C27.5316 17.0124 22.9641 16.0132 23.9883 16.3628C25.0126 16.7124 27.2117 17.5493 26.9618 18.0707C26.428 19.1843 22.8825 17.2982 22.5876 17.67C22.1117 18.2698 25.2039 19.6687 25.1778 19.8024C25.1274 20.0587 23.0658 19.3995 22.5876 19.9318C22.2004 19.8347 22.0215 19.3713 21.9013 19.3099L21.1404 10.5865C21.1404 10.5865 21.8236 18.7999 20.9506 19.0361C20.0777 19.2723 17.6528 19.9905 17.5823 19.6318C17.556 19.4982 20.502 18.2698 20.0261 17.67C19.6756 17.2281 16.1204 18.7954 15.8936 17.8878C14.8831 17.2404 19.1659 16.6801 19.1659 16.018C19.1659 15.3558 15.248 16.8017 15.7167 15.88C16.1854 14.9582 19.322 14.6282 19.3805 14.5005C19.4875 14.2671 15.8936 14.864 15.8936 14.5005C15.8936 13.8129 18.0448 13.6775 19.3805 13.0587C19.4594 12.3524 16.1401 13.7539 15.8936 13.1878C15.647 12.6217 20.1361 11.155 20.0261 11.0408C19.8524 10.8603 16.2345 11.6745 16.8311 11.247C17.9891 10.4172 20.2494 9.28879 20.7694 8.9878C20.7694 8.9878 20.8321 8.87424 20.899 8.91278C20.9661 8.87424 21.0399 8.83203 21.0399 8.83203C21.0399 8.83203 21.0399 9.54206 21.0288 8.9878C21.0177 8.43355 26.3271 10.8588 26.3874 11.4736C26.4575 12.1918 23.1067 10.9321 23.1855 11.6384C23.8667 12.0135 25.804 12.7394 26.6045 13.0587C26.9675 13.2034 23.9295 12.7522 23.9936 12.9738C24.1572 13.5384 27.1166 13.6085 27.204 14.5131Z" clip-rule="evenodd"/></g></g></g></g></g></g><defs><filter id="filter0_dd_91_26767" width="42" height="30" x="0" y="0" color-interpolation-filters="sRGB" filterUnits="userSpaceOnUse"><feFlood flood-opacity="0" result="BackgroundImageFix"/><feColorMatrix in="SourceAlpha" result="hardAlpha" values="0 0 0 0 0 0 0 0 0 0 0 0 0 0 0 0 0 0 127 0"/><feOffset dy="1"/><feGaussianBlur stdDeviation="1"/><feColorMatrix values="0 0 0 0 0.0627451 0 0 0 0 0.0941176 0 0 0 0 0.156863 0 0 0 0.06 0"/><feBlend in2="BackgroundImageFix" result="effect1_dropShadow_91_26767"/><feColorMatrix in="SourceAlpha" result="hardAlpha" values="0 0 0 0 0 0 0 0 0 0 0 0 0 0 0 0 0 0 127 0"/><feOffset dy="1"/><feGaussianBlur stdDeviation="1.5"/><feColorMatrix values="0 0 0 0 0.0627451 0 0 0 0 0.0941176 0 0 0 0 0.156863 0 0 0 0.1 0"/><feBlend in2="effect1_dropShadow_91_26767" result="effect2_dropShadow_91_26767"/><feBlend in="SourceGraphic" in2="effect2_dropShadow_91_26767" result="shape"/></filter><clipPath id="clip0_91_26767"><rect width="36" height="24" x="3" y="2" fill="white" rx="2"/></clipPath></defs></svg>

<svg xmlns="http://www.w3.org/2000/svg" fill="none" aria-hidden="true" viewBox="0 0 42 30"><g filter="url(#a)"><g clip-path="url(#b)"><mask id="c" width="36" height="24" x="3" y="2" maskUnits="userSpaceOnUse" style="mask-type:alpha"><path fill="#fff" d="M3 2h36v24H3z"/></mask><g fill-rule="evenodd" clip-rule="evenodd" mask="url(#c)"><path fill="#F50101" d="M39 2H3v6h36V2Zm0 18H3v6h36v-6Z"/><path fill="#F7FCFF" d="M3 8h36v12H3V8Z"/><path fill="#52AB0B" d="M27.204 14.513c.084.867-3.517-.36-3.517-.012 0 .347 3.857.957 3.851 1.734-.006.777-4.574-.222-3.55.128 1.025.35 3.224 1.186 2.974 1.708-.534 1.113-4.08-.773-4.374-.401-.476.6 2.616 1.999 2.59 2.132-.05.257-2.112-.402-2.59.13-.388-.097-.567-.56-.687-.622l-.76-8.723s.683 8.213-.19 8.45c-.873.235-3.298.954-3.369.595-.026-.134 2.92-1.362 2.444-1.962-.35-.442-3.906 1.125-4.132.218-1.01-.648 3.272-1.208 3.272-1.87 0-.662-3.918.784-3.45-.138.47-.922 3.606-1.252 3.665-1.38.107-.233-3.487.364-3.487 0 0-.687 2.15-.822 3.487-1.441.078-.707-3.24.695-3.487.129-.247-.566 4.242-2.033 4.132-2.147-.174-.18-3.791.633-3.195.206 1.158-.83 3.418-1.958 3.938-2.26 0 0 .063-.113.13-.074l.14-.081s0 .71-.01.156c-.011-.554 5.298 1.87 5.358 2.486.07.718-3.28-.542-3.201.164.68.376 2.618 1.101 3.419 1.42.363.145-2.675-.306-2.611-.084.163.564 3.123.634 3.21 1.54Z"/></g></g></g><defs><clipPath id="b"><rect width="36" height="24" x="3" y="2" fill="#fff" rx="2"/></clipPath><filter id="a" width="42" height="30" x="0" y="0" color-interpolation-filters="sRGB" filterUnits="userSpaceOnUse"><feFlood flood-opacity="0" result="BackgroundImageFix"/><feColorMatrix in="SourceAlpha" result="hardAlpha" values="0 0 0 0 0 0 0 0 0 0 0 0 0 0 0 0 0 0 127 0"/><feOffset dy="1"/><feGaussianBlur stdDeviation="1"/><feColorMatrix values="0 0 0 0 0.0627451 0 0 0 0 0.0941176 0 0 0 0 0.156863 0 0 0 0.06 0"/><feBlend in2="BackgroundImageFix" result="effect1_dropShadow_91_26767"/><feColorMatrix in="SourceAlpha" result="hardAlpha" values="0 0 0 0 0 0 0 0 0 0 0 0 0 0 0 0 0 0 127 0"/><feOffset dy="1"/><feGaussianBlur stdDeviation="1.5"/><feColorMatrix values="0 0 0 0 0.0627451 0 0 0 0 0.0941176 0 0 0 0 0.156863 0 0 0 0.1 0"/><feBlend in2="effect1_dropShadow_91_26767" result="effect2_dropShadow_91_26767"/><feBlend in="SourceGraphic" in2="effect2_dropShadow_91_26767" result="shape"/></filter></defs></svg>
